X:563
T: WENN ICH IN FREIHEIT LEBEN WILL
N: E0531B
O: Europa, Mitteleuropa, Deutschland, Brandenburg
R: Liebes - Lied
M: 4/4
L: 1/8
K: F
FA | c2f2cABG | F2A2A2
FA | c2f2cABG | A4z2
AA | A2A2G2cB | B3AA2
c2 | fcAFc2E2 | F4z2

